X: 189
T:Memories of Father Charlie MacDonald
R:Lament
C:Trad.
S:Cape Breton set: air, strathspey, march, reel -- Buddy MacMaster, 1997
Z:Added by elizabeth.scarlett@rogers.com
M:3/4
L:1/8
K:D
A2|d4fe|d4c2|B2d2B2|A4AB|d4ef|a4f2|f4ed|e4A2|
d4fe|d4c2|B2d2B2|A4AB|d4ef|a4f2|e6|d4:|
|fg|a4ba|f4ed|B2d2B2|A4B2|d4ef|a4f2|f4ed|e4fg|
a4ba|f4ed|B2d2B2|A4AB|d4ef|a4f2|e6|d4fg|
a4ba|f4ed|B2d2B2|A4B2|d4ef|a4f2|f4ed|e4fg|
a4A2|A4=c2|Bd3B2|A4AB|d4ef|a4f2|e6|d4|]
